svg/nodejs.svg

<svg viewBox="0 0 20 20" xmlns="http://www.w3.org/2000/svg">
<rect width="100%" height="100%" fill="#333333"/>
<path d="M10.3823 2.103C10.1375 1.96909 9.84695 1.96909 9.60227 2.103L3.16359 5.7199C2.9189 5.85389 2.78125 6.10687 2.78125 6.37485V13.6234C2.78125 13.8914 2.93417 14.1444 3.16359 14.2784L9.60227 17.8953C9.84695 18.0292 10.1375 18.0292 10.3823 17.8953L16.8209 14.2784C17.0657 14.1444 17.2032 13.8914 17.2032 13.6234V6.37485C17.2032 6.10687 17.0503 5.85389 16.8209 5.7199L10.3823 2.103Z" fill="url(#paint0_linear_58_1395)"/>
<path d="M16.8363 5.71985L10.367 2.10294C10.3059 2.07318 10.2294 2.04341 10.1682 2.02856L2.91901 14.0997C2.98016 14.1741 3.05666 14.2336 3.13308 14.2783L9.60237 17.8952C9.78591 17.9994 9.99998 18.0291 10.1988 17.9696L17.0045 5.85384C16.9586 5.79431 16.8975 5.74962 16.8363 5.71985Z" fill="url(#paint1_linear_58_1395)"/>
<path d="M16.8365 14.2782C17.02 14.174 17.1577 13.9954 17.2188 13.8019L10.1378 2.01355C9.9543 1.98378 9.75542 1.99863 9.58723 2.10285L3.16382 5.70484L10.0919 17.9993C10.1836 17.9844 10.2908 17.9546 10.3825 17.91L16.8365 14.2782Z" fill="url(#paint2_linear_58_1395)"/>
<linearGradient id="paint0_linear_58_1395" x1="12.6145" y1="4.79675" x2="7.0435" y2="16.4743" gradientUnits="userSpaceOnUse">
<stop stop-color="#3F873F"/>
<stop offset="0.3296" stop-color="#3F8B3D"/>
<stop offset="0.6367" stop-color="#3E9638"/>
<stop offset="0.9341" stop-color="#3DA92E"/>
<stop offset="1" stop-color="#3DAE2B"/>
</linearGradient>
<linearGradient id="paint1_linear_58_1395" x1="9.0138" y1="10.8455" x2="25.0331" y2="-1.31604" gradientUnits="userSpaceOnUse">
<stop offset="0.1376" stop-color="#3F873F"/>
<stop offset="0.4016" stop-color="#52A044"/>
<stop offset="0.7129" stop-color="#64B749"/>
<stop offset="0.9081" stop-color="#6ABF4B"/>
</linearGradient>
<linearGradient id="paint2_linear_58_1395" x1="2.54543" y1="9.99663" x2="17.4441" y2="9.99663" gradientUnits="userSpaceOnUse">
<stop offset="0.0919165" stop-color="#6ABF4B"/>
<stop offset="0.2871" stop-color="#64B749"/>
<stop offset="0.5984" stop-color="#52A044"/>
<stop offset="0.8624" stop-color="#3F873F"/>
</linearGradient>
</svg>

<svg xmlns="http://www.w3.org/2000/svg" viewBox="0 0 20 20">
  <rect width="100%" height="100%" fill="#333"/>
  <path fill="url(#a)" d="M10.38 2.1a.8.8 0 0 0-.78 0L3.16 5.72a.74.74 0 0 0-.38.65v7.25c0 .27.15.52.38.66L9.6 17.9a.8.8 0 0 0 .78 0l6.44-3.62a.74.74 0 0 0 .38-.66V6.37a.77.77 0 0 0-.38-.65L10.38 2.1Z"/>
  <path fill="url(#b)" d="M16.84 5.72 10.37 2.1a1.08 1.08 0 0 0-.2-.07L2.92 14.1a.8.8 0 0 0 .21.18L9.6 17.9c.19.1.4.13.6.07L17 5.85a.48.48 0 0 0-.16-.13Z"/>
  <path fill="url(#c)" d="M16.84 14.28c.18-.1.32-.28.38-.48L10.14 2.01a.8.8 0 0 0-.55.1L3.16 5.7 10.1 18l.3-.09 6.45-3.63Z"/>
  <linearGradient id="a" x1="12.61" x2="7.04" y1="4.8" y2="16.47" gradientUnits="userSpaceOnUse">
    <stop stop-color="#3F873F"/>
    <stop offset=".33" stop-color="#3F8B3D"/>
    <stop offset=".64" stop-color="#3E9638"/>
    <stop offset=".93" stop-color="#3DA92E"/>
    <stop offset="1" stop-color="#3DAE2B"/>
  </linearGradient>
  <linearGradient id="b" x1="9.01" x2="25.03" y1="10.85" y2="-1.32" gradientUnits="userSpaceOnUse">
    <stop offset=".14" stop-color="#3F873F"/>
    <stop offset=".4" stop-color="#52A044"/>
    <stop offset=".71" stop-color="#64B749"/>
    <stop offset=".91" stop-color="#6ABF4B"/>
  </linearGradient>
  <linearGradient id="c" x1="2.55" x2="17.44" y1="10" y2="10" gradientUnits="userSpaceOnUse">
    <stop offset=".09" stop-color="#6ABF4B"/>
    <stop offset=".29" stop-color="#64B749"/>
    <stop offset=".6" stop-color="#52A044"/>
    <stop offset=".86" stop-color="#3F873F"/>
  </linearGradient>
</svg>
